!! Stephen C. Foster, "Willie has Gone to the War"
!! from 'Stephen Foster Song Book' Dover Publications (New York) pp. 162-165
!! NOTE:  Leading and trailing bars of rest have been omitted.
**kern
*M4/4
*MM78
*E-:
8r
8b-
=1
4b-
8.ee-
16dd
4cc
8.b-
16a-
=2
2.g
4b-
=3
4b-
8a-
8g
4g
8f
8e-
=4
2.f
4b-
=5
4b-
8.ee-
16dd
4cc
8.b-
16a-
=6
2.g
4g
=7
4f
8.g
16a-
4g
8.f
16f
=8
2.e-
4g
=9
4g
8.cc
16dd
4ee-
8.dd
16ee-
=10
2.cc
4g
=11
4ee-
8.dd
16dd
4cc
8.dd
16cc
=12
2.b-
8r
8b-
=13
4b-
8.ee-
16dd
4cc
8.b-
16a-
=14
2.g
8r
8g
=15
8f
4g
8a-
4g
8.f
16f
=16
2e-
2r
!! Chorus:
=17
8b-
4g
8a-
{8a-
8g}
8f
8e-
=18
2ee-
8cc
4.ee-
=19
8b-
4g
8g
4g
8.f
16e-
=20
2.f
4r
=21
8b-
4g
8g
{8a-
8g}
8f
8e-
=22
2ee-
8cc
4.ee-
=23
8b-
4ee-
8gg
{8gg
8ff}
8cc
8dd
=24
2.ee-
==
*-
